X: 1
T: The Kerfunten
R: jig
M: 6/8
L: 1/8
K: Dmaj
|:F3 FED|FGA Bcd|A2 B BAF|~E3 EDE|
|~F3 FED|FGA Bcd|A2 B BAF|1 EFE D2 E:|2 EFE DFA|
|:d3 def|B3 BAB|d3 def|fed efe|
|d3 def|B3 BAB|A2 d dAF|1EFE DFA:|2 EFE D2 E|


Tune 139	Setting 25806

